X:1
T:Farmer Michael Hayes
M:6/8
L:1/8
K:D
 E| E2 E F2 D| E2 E d2 c|
M:9/8
 B2 B A2 F E2 D|
M:6/8
 B,6| z4| z B,| E2- E F2 D| E2 E F2 G| B2 A G2 A| B6| z4 z B| d2 c B2 A|\
 d2 d F2 F|
M:9/8
 EFG F2 E E2 D|
M:6/8
 B,6| z4 z B,| D2 C D2 E| D2 E F2 A| c2 B A2 F| E4- E||
